svg/UnitedNations-Flags/flag-aw.svg

<?xml version="1.0" encoding="UTF-8" standalone="no"?>
<!-- Created with Inkscape (http://www.inkscape.org/) --><svg height="256" id="svg2" inkscape:output_extension="org.inkscape.output.svg.inkscape" inkscape:version="0.46" sodipodi:docname="Flag_of_Aruba.svg" sodipodi:version="0.32" version="1.0" width="256" xmlns="http://www.w3.org/2000/svg" xmlns:cc="http://creativecommons.org/ns#" xmlns:dc="http://purl.org/dc/elements/1.1/" xmlns:inkscape="http://www.inkscape.org/namespaces/inkscape" xmlns:rdf="http://www.w3.org/1999/02/22-rdf-syntax-ns#" xmlns:sodipodi="http://sodipodi.sourceforge.net/DTD/sodipodi-0.dtd" xmlns:svg="http://www.w3.org/2000/svg" xmlns:xlink="http://www.w3.org/1999/xlink">
  <metadata>
    <rdf:RDF xmlns:cc="http://web.resource.org/cc/" xmlns:dc="http://purl.org/dc/elements/1.1/" xmlns:rdf="http://www.w3.org/1999/02/22-rdf-syntax-ns#">
      <cc:Work rdf:about="">
        <dc:title></dc:title>
        <dc:description></dc:description>
        <dc:subject>
          <rdf:Bag>
            <rdf:li>unsorted</rdf:li>
          </rdf:Bag>
        </dc:subject>
        <dc:publisher>
          <cc:Agent rdf:about="http://www.openclipart.org/">
            <dc:title>Open Clip Art Library, Source: Wikimedia Commons, Source: Wikimedia Commons, Source: Wikimedia Commons, Source: Wikimedia Commons</dc:title>
          </cc:Agent>
        </dc:publisher>
        <dc:creator>
          <cc:Agent>
            <dc:title></dc:title>
          </cc:Agent>
        </dc:creator>
        <dc:rights>
          <cc:Agent>
            <dc:title></dc:title>
          </cc:Agent>
        </dc:rights>
        <dc:date></dc:date>
        <dc:format>image/svg+xml</dc:format>
        <dc:type rdf:resource="http://purl.org/dc/dcmitype/StillImage"/>
        <cc:license rdf:resource="http://en.wikipedia.org/wiki/Public_domain"/>
        <dc:language>en</dc:language>
      </cc:Work>
    </rdf:RDF>
  </metadata>
  <sodipodi:namedview bordercolor="#666666" borderopacity="1.0" gridtolerance="10.0" guidetolerance="10.0" id="base" inkscape:current-layer="svg2" inkscape:cx="225" inkscape:cy="150" inkscape:pageopacity="0.0" inkscape:pageshadow="2" inkscape:window-height="690" inkscape:window-width="917" inkscape:window-x="18" inkscape:window-y="218" inkscape:zoom="1.2422222" objecttolerance="10.0" pagecolor="#ffffff" showgrid="false"/>
  <defs id="defs4">
    <inkscape:perspective id="perspective2553" inkscape:persp3d-origin="225 : 100 : 1" inkscape:vp_x="0 : 150 : 1" inkscape:vp_y="0 : 1000 : 0" inkscape:vp_z="450 : 150 : 1" sodipodi:type="inkscape:persp3d"/>
  </defs>
  <g id="g1887" transform="matrix(0.5688888,0,0,0.5688888,0,42.333359)">
    <rect height="300.00006" id="rect1306" style="fill:#4189dd;fill-opacity:1;fill-rule:evenodd;stroke:none;stroke-opacity:1" width="450.00009" x="0" y="-5.9999998e-05"/>
    <rect height="16.66667" id="rect2035" style="fill:#f9d616;fill-opacity:1;fill-rule:evenodd;stroke:none;stroke-opacity:1" width="450.00009" x="0" y="233.33333"/>
    <use height="18" id="use2763" transform="translate(0,-33.33334)" width="27" x="0" xlink:href="#rect2035" y="0"/>
    <path d="M 66.735601,116.66664 L 53.956304,79.41209 L 16.666667,66.735534 L 53.921221,53.956237 L 66.597778,16.666601 L 79.377075,53.921154 L 116.66671,66.59771 L 79.412158,79.377007 L 66.735601,116.66664 z" id="path2765" style="fill:#ffffff;fill-opacity:1;fill-rule:evenodd;stroke:none;stroke-opacity:1"/>
    <path d="M 66.724118,108.33333 L 56.074699,77.287855 L 24.999987,66.724053 L 56.045463,56.074634 L 66.609265,24.999923 L 77.258684,56.045398 L 108.33339,66.6092 L 77.28792,77.258619 L 66.724118,108.33333 z" id="path3496" style="fill:#d21034;fill-opacity:1;fill-rule:evenodd;stroke:none;stroke-opacity:1"/>
  </g>
</svg>

<svg xmlns="http://www.w3.org/2000/svg" xmlns:xlink="http://www.w3.org/1999/xlink" viewBox="0 0 256 256"><g transform="matrix(.56889 0 0 .56889 0 42.33)"><path fill="#4189dd" fill-rule="evenodd" d="m0 0h450v300h-450z"/><path id="0" fill="#f9d616" fill-rule="evenodd" d="m0 233.33h450v16.667h-450z"/><use height="18" transform="translate(0-33.33)" width="27" xlink:href="#0"/><g fill-rule="evenodd"><path d="m66.736 116.67l-12.779-37.25-37.29-12.677 37.25-12.779 12.677-37.29 12.779 37.25 37.29 12.677-37.25 12.779-12.677 37.29" fill="#fff"/><path d="m66.72 108.33l-10.649-31.05-31.07-10.564 31.05-10.649 10.564-31.07 10.649 31.05 31.07 10.564-31.05 10.649-10.564 31.07" fill="#d21034"/></g></g></svg>
